Catalina-light/actions/16/document-new.svg

<?xml version="1.0" encoding="UTF-8" standalone="no"?>
<svg
   xmlns:dc="http://purl.org/dc/elements/1.1/"
   xmlns:cc="http://creativecommons.org/ns#"
   xmlns:rdf="http://www.w3.org/1999/02/22-rdf-syntax-ns#"
   xmlns:svg="http://www.w3.org/2000/svg"
   xmlns="http://www.w3.org/2000/svg"
   xmlns:sodipodi="http://sodipodi.sourceforge.net/DTD/sodipodi-0.dtd"
   xmlns:inkscape="http://www.inkscape.org/namespaces/inkscape"
   width="16"
   height="16"
   viewBox="0 0 4.2333332 4.2333335"
   version="1.1"
   id="svg8"
   inkscape:version="1.0.2 (e86c870879, 2021-01-15)"
   sodipodi:docname="document-new.svg">
  <defs
     id="defs2" />
  <sodipodi:namedview
     id="base"
     pagecolor="#ffffff"
     bordercolor="#666666"
     borderopacity="1.0"
     inkscape:pageopacity="0.0"
     inkscape:pageshadow="2"
     inkscape:zoom="32"
     inkscape:cx="-6.5100599"
     inkscape:cy="9.7565295"
     inkscape:document-units="mm"
     inkscape:current-layer="layer1"
     showgrid="true"
     units="px"
     inkscape:window-width="1920"
     inkscape:window-height="1024"
     inkscape:window-x="0"
     inkscape:window-y="24"
     inkscape:window-maximized="1"
     inkscape:document-rotation="0" />
  <metadata
     id="metadata5">
    <rdf:RDF>
      <cc:Work
         rdf:about="">
        <dc:format>image/svg+xml</dc:format>
        <dc:type
           rdf:resource="http://purl.org/dc/dcmitype/StillImage" />
        <dc:title></dc:title>
      </cc:Work>
    </rdf:RDF>
  </metadata>
  <g
     inkscape:label="Capa 1"
     inkscape:groupmode="layer"
     id="layer1"
     transform="translate(0,-292.76665)">
    <rect
       style="fill:#202020;fill-opacity:1;stroke:none;stroke-width:0.0519999;stroke-linecap:round;stroke-linejoin:round"
       id="rect833-3"
       width="0.26458311"
       height="1.0583208"
       x="1.984375"
       y="294.48645" />
    <rect
       style="fill:#202020;fill-opacity:1;stroke:none;stroke-width:0.0519999;stroke-linecap:round;stroke-linejoin:round"
       id="rect835-6"
       width="0.2645874"
       height="1.0583346"
       x="294.8833"
       y="-2.6458335"
       transform="rotate(90)" />
    <path
       id="rect842"
       style="fill:#202020;stroke-width:0.196535;stroke-linecap:round;stroke-linejoin:round"
       d="m 7.5625,1.5 v 0 C 7.0816061,1.521617 6.6051101,1.7210618 6.2363281,2.0898438 L 3.5859375,4.7421875 C 3.1670844,5.1610406 2.971016,5.7157046 3,6.2617188 v 0 V 13 c 0,1.108025 0.8919752,2 2,2 h 6 c 1.108025,0 2,-0.891975 2,-2 V 3.5 c 0,-1.1080248 -0.891975,-2 -2,-2 z m 0.2069236,0.9707031 2.9512794,0 c 0.535338,0 0.990207,0.3261318 1.181641,0.7910157 0.03046,0.073967 0.05596,0.1521769 0.07226,0.2324218 C 11.991698,3.5768022 12,3.662127 12,3.75 v 0.00195 8.976563 0.02148 c 0,0.525221 -0.320301,0.97262 -0.777344,1.158203 -5.06e-4,2.14e-4 -0.0014,-2.13e-4 -0.002,0 -0.06973,0.0282 -0.14334,0.05105 -0.21875,0.06641 -0.09094,0.02035 -0.183962,0.0332 -0.28125,0.0332 H 5.2753906 c -0.1792528,0 -0.3493806,-0.03762 -0.5039062,-0.103515 C 4.46496,13.777914 4.2220863,13.53504 4.0957031,13.228516 c -0.030217,-0.07173 -0.053459,-0.148765 -0.070312,-0.226563 -2.547e-4,-0.0013 2.51e-4,-0.0027 0,-0.0039 -0.018625,-0.08722 -0.029297,-0.176565 -0.029297,-0.269531 V 6.2095733 c 0,-0.2341726 0.082187,-0.5367407 0.2256065,-0.673461 L 7.0362485,2.721564 C 7.2663047,2.4915078 7.5472306,2.4707031 7.7694236,2.4707031 Z"
       transform="matrix(0.26458333,0,0,0.26458333,0,292.76665)"
       sodipodi:nodetypes="ccccccssssssccsscsccscccssccccscccc" />
  </g>
</svg>

<svg xmlns="http://www.w3.org/2000/svg" width="16" height="16" version="1.1" viewBox="0 0 4.2333 4.2333">
<g fill="#363636">
<rect x="1.9844" y="1.72" width=".26458" height="1.0583" />
<rect x="294.88" y="-2.6458" width=".26459" height="1.0583" />
<path transform="matrix(0.26458 0 0 0.26458 0 0)" d="m7.5625 1.5v0c-0.48089 0.021617-0.95739 0.22106-1.3262 0.58984l-2.6504 2.6523c-0.41885 0.41885-0.61492 0.97352-0.58594 1.5195v6.7383c0 1.108 0.89198 2 2 2h6c1.108 0 2-0.89198 2-2v-9.5c0-1.108-0.89198-2-2-2zm0.20692 0.9707h2.9513c0.53534 0 0.99021 0.32613 1.1816 0.79102 0.03046 0.073967 0.05596 0.15218 0.07226 0.23242 0.017094 0.082662 0.025396 0.16799 0.025396 0.25586v9c0 0.52522-0.3203 0.97262-0.77734 1.1582-5.06e-4 2.14e-4 -0.0014-2.13e-4 -2e-3 0-0.06973 0.0282-0.14334 0.05105-0.21875 0.06641-0.09094 0.02035-0.18396 0.0332-0.28125 0.0332h-5.4453c-0.17925 0-0.34938-0.03762-0.50391-0.10352-0.30652-0.12638-0.5494-0.36925-0.67578-0.67578-0.030217-0.07173-0.053459-0.14876-0.070312-0.22656-2.547e-4 -0.0013 2.51e-4 -0.0027 0-0.0039-0.018625-0.08722-0.029297-0.17656-0.029297-0.26953v-6.5189c0-0.23417 0.082187-0.53674 0.22561-0.67346l2.8145-2.8145c0.23006-0.23006 0.51098-0.25086 0.73318-0.25086z" stroke-linecap="round" stroke-linejoin="round" stroke-width=".19654" />
</g>
</svg>
